X: 1
B: Cole's 1000 Fiddle Tunes
T:PICNIC -- REEL.
T:Higgins' Best Hornpipe
T:Flowing Tide, The
R:reel
B:Coles 43.8
Z:John Walsh <walsh:mat:::h.ubc.ca>
M:2/4
L:1/16
Z: Contributed 20000514053735 by John Walsh walsh:mat:::h.ubc.ca
K:A
v.A,2uA,C EA,CE|"4"ACE"0"A .c2(BA)|FAEA .c(eaf)|ecBA FA"4"EC|
.A,2A,C EA,CE|"4"ACE"0"A .c2(BA)|FAEA .c(efe)|c"4"eBc A2 z2:|
|:vA2(Ac) BAFA|agaf ecBA|dfc"4"e B"4"eAc| dBcA BAFA|
EA,CD "4"AEE"0"A| dBcA BAFA|EAcf ecBA|EAGB A2z2:|


